svgs/airbnb.svg

<svg width="192" height="192" viewBox="0 0 192 192" fill="none" xmlns="http://www.w3.org/2000/svg">
<g clip-path="url(#clip0_135_6)">
<path d="M95.9991 22C87.3061 22.006 79.3921 27.016 75.6651 34.87C64.5971 58.486 42.2691 105.33 31.2011 128.819C29.3861 132.637 28.4401 136.815 28.4341 141.044C28.4341 157.038 41.3971 170.001 57.3911 170.001C81.1351 170.001 118.52 130.171 118.52 102.437C118.52 89.999 108.438 79.916 96.0001 79.916C83.5611 79.916 73.4791 89.999 73.4791 102.437C73.4791 130.171 110.864 170.001 134.608 170.001C150.6 170.001 163.565 157.038 163.565 141.044C163.559 136.815 162.614 132.64 160.797 128.819C149.731 105.331 127.465 58.486 116.399 34.999C112.698 27.072 104.745 22.003 95.9991 22Z" stroke="black" stroke-width="12" stroke-linecap="round" stroke-linejoin="round"/>
</g>
<defs>
<clipPath id="clip0_135_6">
<rect width="192" height="192" fill="white"/>
</clipPath>
</defs>
</svg>

<svg width="192" height="192" fill="none" xmlns="http://www.w3.org/2000/svg"><g clip-path="url(#a)"><path d="M96 22a22.527 22.527 0 0 0-20.335 12.87c-11.068 23.616-33.396 70.46-44.464 93.949a28.578 28.578 0 0 0-2.767 12.225c0 15.994 12.963 28.957 28.957 28.957 23.744 0 61.129-39.83 61.129-67.564 0-12.438-10.082-22.521-22.52-22.521-12.439 0-22.52 10.083-22.52 22.521 0 27.734 37.384 67.564 61.128 67.564 15.992 0 28.957-12.963 28.957-28.957a28.56 28.56 0 0 0-2.768-12.225c-11.066-23.488-33.332-70.333-44.398-93.82A22.525 22.525 0 0 0 95.999 22Z" stroke="#000" stroke-width="12" stroke-linecap="round" stroke-linejoin="round"/></g><defs><clipPath id="a"><path fill="#fff" d="M0 0h192v192H0z"/></clipPath></defs></svg>
